X:1
T:O Heilige Dreifaltigkeit, LM
T:O Heilige Dreifaltigkeit, LM
T:Nikolaus Hermann, 1560
T:Public Domain Courtesy of the Cyber Hymnal™
C:Nikolaus Hermann, 1560
Z:Public Domain
Z:Courtesy of the Cyber Hymnal™
%%score ( 1 2 ) ( 3 4 )
L:1/8
Q:1/4=115
M:4/4
K:D
V:1 treble 
V:2 treble 
V:3 bass 
V:4 bass 
V:1
 [A,D]2 | [DF]2 [DG]2 [CA]2 [DA]2 | [DB]2 [DB]2 [DA]4 | z2 [CA]2 [DA]2 [Dd]2 | %4
 [Ec]2 [CA]2 [FB]2 [EB]2 | [CA]6 [DA]2 | [Fd]2 [Fc]2 [DB]2 [DA]2 | [DB]2 [EG]2 [CF]4 | %8
 z2 [DF]2 [FB]2 [EB]2 | [EA]2 [DF]2 [DG]2 [CE]2 | D6 |] %11
V:2
 x2 | x8 | x8 | x8 | x8 | x8 | x8 | x8 | x8 | x8 | D6 |] %11
V:3
 [D,F,]2 | [D,A,]2 [B,,G,]2 [A,,E,]2 [D,F,]2 | [G,,G,]2 [B,,G,]2 [D,F,]4 | %3
 z2 [A,,E,]2 [D,F,]2 (F,^G,) | [C,A,]2 [F,A,]2 [D,A,]2 [E,^G,]2 | [A,,A,]6 [D,F,]2 | %6
 [B,,B,]2 [F,A,]2 G,2 [D,F,]2 | G,2 [E,B,]2 [F,^A,]4 | z2 [B,,B,]2 [D,B,]2 [E,G,]2 | %9
 [C,A,]2 [D,A,]2 [G,,B,]2 [A,,A,]2 | [D,F,]6 |] %11
V:4
 x2 | x8 | x8 | x6 B,,2 | x8 | x8 | x4 G,2 x2 | G,2 x6 | x8 | x8 | x6 |] %11

